_includes/icons/ios-behance.svg

<svg fill="#666" height="50" viewBox="0 0 50 50" width="50" xmlns="http://www.w3.org/2000/svg"><path d="m9 4c-2.7495161 0-5 2.2504839-5 5v32c0 2.749516 2.2504839 5 5 5h32c2.749516 0 5-2.250484 5-5v-32c0-2.7495161-2.250484-5-5-5zm0 2h32c1.668484 0 3 1.3315161 3 3v32c0 1.668484-1.331516 3-3 3h-32c-1.6684839 0-3-1.331516-3-3v-32c0-1.6684839 1.3315161-3 3-3zm2 10a1.0001 1.0001 0 0 0 -1 1v16.001953a1.0001 1.0001 0 0 0 1 1h7.609375a1.0001 1.0001 0 0 0 .001953 0c.412425-.00065 1.859092-.03581 3.355469-.738281 1.496329-.702468 3.033203-2.28232 3.033203-4.835938 0-1.61999-.530532-2.839863-1.242188-3.642578-.297836-.335946-.576084-.373593-.890624-.580078.601774-.703962 1.132812-1.656687 1.132812-3.205078 0-2.382675-1.305029-3.861398-2.646484-4.462891-1.341456-.601492-2.720945-.537109-3.060547-.537109zm19 0a1.0001 1.0001 0 1 0 0 2h6a1.0001 1.0001 0 1 0 0-2zm-18 2h6.292969c.452397 0 1.428143-.0037 2.242187.361328.814044.365008 1.464844.887347 1.464844 2.638672 0 1.875889-.722898 2.235863-1.152344 2.457031a1.0001 1.0001 0 0 0 .132813 1.833985c.378133.129623.883154.371277 1.28125.820312s.738281 1.107397.738281 2.316406c0 1.830382-.84269 2.537109-1.882812 3.025391-1.040124.488282-2.286238.548479-2.507813.548828h-6.609375zm21 1c-.912374 0-2.582585.181258-4.136719 1.248047-1.554133 1.066789-2.863281 3.09135-2.863281 6.251953 0 2.943402 1.208842 4.944154 2.728516 6.068359s3.242166 1.431641 4.441406 1.431641c2.539146 0 4.334569-.863054 5.410156-2.089844.993431-1.133083 1.322292-2.469849 1.373047-3.613281a1.0001 1.0001 0 0 0 .046875-.261719c.000308-.0086-.002253-.018703-.001953-.027344.00005-.002446.001953-.005371.001953-.007812a1.0001 1.0001 0 0 0 -.005859-.099609 1.0001 1.0001 0 0 0 0-.003907c.054448-1.807353-.085561-3.896149-1.050782-5.683593-.988742-1.831005-2.976789-3.212891-5.943359-3.212891zm-18 1v3h2.619141c.357 0 1.546875-.225453 1.546875-1.564453 0-1.34-1.548157-1.435547-1.785157-1.435547zm18 1c2.40843 0 3.482883.868114 4.181641 2.162109.565998 1.048145.738075 2.456228.771484 3.837891h-2.953125-4a1.0001 1.0001 0 0 0 -1 1s.008601.252415.082031.472656c.07341.220241.218087.491524.460938.734375.485703.485703 1.290364.792969 2.457031.792969s1.971329-.307266 2.457031-.792969c.0686-.0686.07739-.135656.13086-.207031h2.253906c-.133179.554752-.347113 1.112499-.765625 1.589844-.677913.77321-1.797396 1.410156-3.90625 1.410156-.82876 0-2.194127-.256517-3.251953-1.039062-1.057826-.782546-1.917969-2.03134-1.917969-4.460938 0-2.646397.930477-3.872055 1.996094-4.603516 1.065616-.73146 2.39528-.896484 3.003906-.896484zm.085938 1.601562c-.591001 0-1.015516.075469-1.353516.230469-.338.154-.58975.387141-.84375.619141-.169.232-.338828.465391-.423828.77539-.085.232-.168969.464391-.167969.775391h5.408203c-.085-.775-.338719-1.39425-.761719-1.78125-.422-.387-1.012422-.619141-1.857421-.619141zm-18.052735 3.398438v3.980469h2.929688c.254 0 2.037109-.098016 2.037109-1.916016 0-1.82-1.401109-2.064453-2.037109-2.064453z"/></svg>

<svg xmlns="http://www.w3.org/2000/svg" viewBox="0 0 50 50" width="50" height="50" fill="#666"><path style="line-height:normal;text-indent:0;text-align:start;text-decoration-line:none;text-decoration-style:solid;text-decoration-color:#000;text-transform:none;block-progression:tb;isolation:auto;mix-blend-mode:normal" d="M 9 4 C 6.2504839 4 4 6.2504839 4 9 L 4 41 C 4 43.749516 6.2504839 46 9 46 L 41 46 C 43.749516 46 46 43.749516 46 41 L 46 9 C 46 6.2504839 43.749516 4 41 4 L 9 4 z M 9 6 L 41 6 C 42.668484 6 44 7.3315161 44 9 L 44 41 C 44 42.668484 42.668484 44 41 44 L 9 44 C 7.3315161 44 6 42.668484 6 41 L 6 9 C 6 7.3315161 7.3315161 6 9 6 z M 11 16 A 1.0001 1.0001 0 0 0 10 17 L 10 33.001953 A 1.0001 1.0001 0 0 0 11 34.001953 L 18.609375 34.001953 A 1.0001 1.0001 0 0 0 18.611328 34.001953 C 19.023753 34.001303 20.47042 33.966143 21.966797 33.263672 C 23.463126 32.561204 25 30.981352 25 28.427734 C 25 26.807744 24.469468 25.587871 23.757812 24.785156 C 23.459976 24.44921 23.181728 24.411563 22.867188 24.205078 C 23.468962 23.501116 24 22.548391 24 21 C 24 18.617325 22.694971 17.138602 21.353516 16.537109 C 20.01206 15.935617 18.632571 16 18.292969 16 L 11 16 z M 30 16 A 1.0001 1.0001 0 1 0 30 18 L 36 18 A 1.0001 1.0001 0 1 0 36 16 L 30 16 z M 12 18 L 18.292969 18 C 18.745366 18 19.721112 17.9963 20.535156 18.361328 C 21.3492 18.726336 22 19.248675 22 21 C 22 22.875889 21.277102 23.235863 20.847656 23.457031 A 1.0001 1.0001 0 0 0 20.980469 25.291016 C 21.358602 25.420639 21.863623 25.662293 22.261719 26.111328 C 22.659815 26.560363 23 27.218725 23 28.427734 C 23 30.258116 22.15731 30.964843 21.117188 31.453125 C 20.077064 31.941407 18.83095 32.001604 18.609375 32.001953 L 12 32.001953 L 12 18 z M 33 19 C 32.087626 19 30.417415 19.181258 28.863281 20.248047 C 27.309148 21.314836 26 23.339397 26 26.5 C 26 29.443402 27.208842 31.444154 28.728516 32.568359 C 30.24819 33.692564 31.970682 34 33.169922 34 C 35.709068 34 37.504491 33.136946 38.580078 31.910156 C 39.573509 30.777073 39.90237 29.440307 39.953125 28.296875 A 1.0001 1.0001 0 0 0 40 28.035156 C 40.000308 28.026556 39.997747 28.016453 39.998047 28.007812 C 39.998097 28.005366 40 28.002441 40 28 A 1.0001 1.0001 0 0 0 39.994141 27.900391 A 1.0001 1.0001 0 0 0 39.994141 27.896484 C 40.048589 26.089131 39.90858 24.000335 38.943359 22.212891 C 37.954617 20.381886 35.96657 19 33 19 z M 15 20 L 15 23 L 17.619141 23 C 17.976141 23 19.166016 22.774547 19.166016 21.435547 C 19.166016 20.095547 17.617859 20 17.380859 20 L 15 20 z M 33 21 C 35.40843 21 36.482883 21.868114 37.181641 23.162109 C 37.747639 24.210254 37.919716 25.618337 37.953125 27 L 35 27 L 31 27 A 1.0001 1.0001 0 0 0 30 28 C 30 28 30.008601 28.252415 30.082031 28.472656 C 30.155441 28.692897 30.300118 28.96418 30.542969 29.207031 C 31.028672 29.692734 31.833333 30 33 30 C 34.166667 30 34.971329 29.692734 35.457031 29.207031 C 35.525631 29.138431 35.534421 29.071375 35.587891 29 L 37.841797 29 C 37.708618 29.554752 37.494684 30.112499 37.076172 30.589844 C 36.398259 31.363054 35.278776 32 33.169922 32 C 32.341162 32 30.975795 31.743483 29.917969 30.960938 C 28.860143 30.178392 28 28.929598 28 26.5 C 28 23.853603 28.930477 22.627945 29.996094 21.896484 C 31.06171 21.165024 32.391374 21 33 21 z M 33.085938 22.601562 C 32.494937 22.601562 32.070422 22.677031 31.732422 22.832031 C 31.394422 22.986031 31.142672 23.219172 30.888672 23.451172 C 30.719672 23.683172 30.549844 23.916563 30.464844 24.226562 C 30.379844 24.458562 30.295875 24.690953 30.296875 25.001953 L 35.705078 25.001953 C 35.620078 24.226953 35.366359 23.607703 34.943359 23.220703 C 34.521359 22.833703 33.930937 22.601562 33.085938 22.601562 z M 15.033203 26 L 15.033203 29.980469 L 17.962891 29.980469 C 18.216891 29.980469 20 29.882453 20 28.064453 C 20 26.244453 18.598891 26 17.962891 26 L 15.033203 26 z"/></svg>
